elements/rpg-character/lib/pants/3.svg

<svg xmlns="http://www.w3.org/2000/svg" fill="none" width="113" height="142" viewBox="0 0 113 142"><path d="M48 127H38v-20h35v20H58v-5H48v5Z" fill="#E8E8E8"/><path d="M48 127v-5h-5v5h5Zm20 0h5v-20h-5v20Z" fill="#D2D2D2"/></svg>

<svg width="113" height="142" viewBox="0 0 113 142" fill="none" xmlns="http://www.w3.org/2000/svg">
<path d="M48 127H38V107H73V127H58V122H48V127Z" fill="#E8E8E8"/>
<path d="M48 127V122H43V127H48Z" fill="#D2D2D2"/>
<path d="M68 127H73V107H68V127Z" fill="#D2D2D2"/>
</svg>
